X:298
T:Little Polly
M:4/4
L:1/8
K:G
D2 G2 GF G2 | E2 A2 A4 | F2 FG A2 F2 | G2 B2 B4 |
D2 G2 GF G2 | E2 A2 A4 | F2 FG A2 F2 | G2 B2 G4 :|
F2 A2 F2 A2 | A2 G2 G4 | EF G2 EF G2 | B2 A2 A4 |
F2 A2 F2 A2 | G2 B2 B4 | A2 F2 AGFE | D2 F2 D4 :|
